X: 90
T: Qu'es mi vida
N: Derived from Ock3018-Ques_mi_vida.krn
C: Johannes Ockeghem
%%abc-version 2.0
%%abcx-abcm2ps-target-version 5.9.1 (29 Sep 2008)
%%abc-creator hum2abc beta
%%abcx-conversion-date 2019/02/17 07:26:16
%%abc-edited-by Jesse Rodin
%%abc-edited-by Chris Gage 06-25-2012
%%abcx-initial-encoding-date 2012/08/16/
%%humdrum-veritas 300024545
%%humdrum-veritas-data 1271605979
%%linebreak <none>
%%barnumbers 0
L: 1/4
M: 3/1
Q: 1/2=120
%%staves [1 2 3 4]
V: 1 clef=treble
V: 2 clef=treble-8
V: 3 clef=bass
V: 4 clef=bass
K: C
[V:1] z12 | 
[V:2] z4z4D4 | 
[V:3] z12 | 
[V:4] z4z4D,,4 | 
[V:1] z12 | 
[V:2] D6C2D3C | 
[V:3] z4z4D,4 | 
[V:4] G,,2F,,2G,,2A,,2D,,4- | 
[V:1] z12 | 
[V:2] A,3B,C2D4C2 | 
[V:3] F,3G,A,2G,F,E,4 | 
[V:4] D,,4z2D,,2A,,4 | 
[V:1] z4z4A4 | 
[V:2] F8A4 | 
[V:3] D,8F,4 | 
[V:4] D,,12 | 
[V:1] A6G2F2ED | 
[V:2] c6G2A2B2 | 
[V:3] F,6E,2F,3E, | 
[V:4] z4z4D,4 | 
[V:1] E2DEF2D4^C2 | 
[V:2] A8A4 | 
[V:3] C,4D,2F,2E,4 | 
[V:4] z2A,,2D,4A,,4 | 
[V:1] D4z4F4 | 
[V:2] A2G4A2B4 | 
[V:3] D,12 | 
[V:4] F,,2G,,2_B,,3C,D,4 | 
[V:1] E4G8 | 
[V:2] c6d2B4- | 
[V:3] G,4G,6G,2 | 
[V:4] C,6B,,2G,,4 | 
[V:1] E6E2E4 | 
[V:2] B2c4G2c4 | 
[V:3] G,6G,2G,4 | 
[V:4] z2C,4C,4C,2 | 
[V:1] A,12 | 
[V:2] z2C4C2C4 | 
[V:3] F,12- | 
[V:4] F,,8F,,3G,, | 
[V:1] z4z4A2A2 | 
[V:2] C2D4_B,2F3E | 
[V:3] F,12 | 
[V:4] A,,2_B,,4G,,2F,,4 | 
[V:1] A4G8 | 
[V:2] C4E8 | 
[V:3] z4z4G,4 | 
[V:4] F,,4C,8 | 
[V:1] F3DE3FG2A2- | 
[V:2] D4G3CE2F2- | 
[V:3] A,3B,C4B,2C2 | 
[V:4] z4C,3B,,G,,2F,,2 | 
[V:1] AGFED4C4 | 
[V:2] F4G3EE4 | 
[V:3] D4B,4A,4- | 
[V:4] z2D,,2G,,4A,,4 | 
[V:1] z2F2E2G4A2- | 
[V:2] F4G6F2 | 
[V:3] A,4C4B,2A,2 | 
[V:4] D,4C,4E,2F,2- | 
[V:1] A2_B2AGF3EED | 
[V:2] D4z2F2G2_B2 | 
[V:3] D4C2A,2G,4 | 
[V:4] F,2_B,,2F,4C,2z2 | 
[V:1] F6E2D4 | 
[V:2] A8z2G2 | 
[V:3] F,8_B,4 | 
[V:4] F,,8G,,4 | 
[V:1] C4z4F4 | 
[V:2] E4E2F4C2 | 
[V:3] A,12 | 
[V:4] A,,3B,,C,2D,4A,,2 | 
[V:1] G4A6G2 | 
[V:2] D4E4F2D2 | 
[V:3] z4z4A,2B,2 | 
[V:4] _B,,4A,,4F,,2G,,2 | 
[V:1] E3FG6F2- | 
[V:2] C4E2D4A2- | 
[V:3] C6B,2G,2A,2- | 
[V:4] A,,2C,4G,,2_B,,2A,,2 | 
[V:1] FDE3DD4^C2 | 
[V:2] ABc4G2A4 | 
[V:3] A,F,G,4D,2E,4 | 
[V:4] D,2C,4_B,,2A,,4 | 
[V:1] D4z2F2G2A2- | 
[V:2] F2D4C2E2F2 | 
[V:3] D,2F,2G,2A,2B,2C2- | 
[V:4] z2_B,,4A,,2G,,2F,,2 | 
[V:1] AGc4B2A3G | 
[V:2] E4F2D6 | 
[V:3] C2A,3F,G,2F,3G, | 
[V:4] C,4z2G,,2D,2B,,2 | 
[V:1] F2EG2FD2E2^C2 | 
[V:2] C2E4A,2B,2C2 | 
[V:3] A,2G,4F,2E,4 | 
[V:4] A,,2C,4F,,2G,,2A,,2 | 
[V:1] D12 ||  
[V:2] A,12 ||  
[V:3] D,12 ||  
[V:4] D,,12 ||  
[V:1]  [K:C] [K:clef=treble][M:3/1]z12 | 
[V:2]  [K:C] [K:clef=treble-8][M:3/1]z4z4F4 | 
[V:3]  [K:C] [K:clef=bass][M:3/1]z12 | 
[V:4]  [K:C] [K:clef=bass][M:3/1]z4z4D,4 | 
[V:1] z12 | 
[V:2] G2E4A3FG2 | 
[V:3] z4z4D4 | 
[V:4] C,4A,,4B,,4 | 
[V:1] z4z4D4 | 
[V:2] A4E2F2G4 | 
[V:3] C4A,4B,4 | 
[V:4] A,,8G,,4 | 
[V:1] C4A,4B,4 | 
[V:2] E4F4E4 | 
[V:3] A,8G,4 | 
[V:4] A,,4z4z4 | 
[V:1] A,8G,4 | 
[V:2] E12 | 
[V:3] C6A,2B,4 | 
[V:4] A,,8E,,4 | 
[V:1] C4B,2A,4C2 | 
[V:2] E4D2E4F2 | 
[V:3] A,4D2C2A,4 | 
[V:4] A,,4B,,2C,4F,,2 | 
[V:1] D2F4E2G4 | 
[V:2] D4C4E2D2 | 
[V:3] F,4A,2G,4_B,2 | 
[V:4] _B,,4A,,2C,3B,,G,,2 | 
[V:1] F2E3DD4^C2 | 
[V:2] C4z2F2A4 | 
[V:3] A,2G,2F,2D,2E,4 | 
[V:4] A,,2C,2D,4A,,4 | 
[V:1] D12 | 
[V:2] A8A2_B2- | 
[V:3] D,12 | 
[V:4] D,,8D,4- | 
[V:1] z4z4F4 | 
[V:2] B2A2_B4A4- | 
[V:3] D4D8 | 
[V:4] D,4_B,,2C,2D,4 | 
[V:1] E4G2G2G2G2 | 
[V:2] A4z2G2E4 | 
[V:3] C4B,4B,4 | 
[V:4] A,,4E,,8 | 
[V:1] A3GF2D2E4 | 
[V:2] C4D4A,4 | 
[V:3] A,4z4^C4 | 
[V:4] F,,4D,,4z2A,,2 | 
[V:1] D4z2F2G2A2- | 
[V:2] z2A2A4G2F2- | 
[V:3] D8B,2A,2 | 
[V:4] D,,8E,,2F,,2- | 
[V:1] ABc2B2G4^F2 | 
[V:2] FDC2E2G2D4 | 
[V:3] C4G,2B,2A,4 | 
[V:4] F,,G,,A,,2G,,4z2D,,2 | 
[V:1] G6A2G2c2- | 
[V:2] D4F4G2F2 | 
[V:3] G,4C8 | 
[V:4] G,,4F,,4E,,2F,,2- | 
[V:1] cAB2c2A4^G2 | 
[V:2] A2D2z2E4E2 | 
[V:3] A,2G,2A,2C2B,4 | 
[V:4] F,,2G,,2F,,2A,,2E,,4 | 
[V:1] A6G2F2ED | 
[V:2] C4D4A,4- | 
[V:3] A,4D6C2 | 
[V:4] F,,4D,,8 | 
[V:1] C4F2G2A2GF | 
[V:2] A,2C4E2A,2z2 | 
[V:3] A,6G,2F,2E,D, | 
[V:4] F,,6E,,2F,,2G,,2 | 
[V:1] E2F3EDC/D/E2^CB, | 
[V:2] A4A,2D2C2A,2 | 
[V:3] C,2D,4F,2E,4 | 
[V:4] A,,2D,,4D,,2A,,4 | 
[V:1] D12 |]  
[V:2] _B,4A,8 |]  
[V:3] D,12 |]  
[V:4] D,,12 |]  



